X: 4
T: Darkies' Dream, The
M: 4/4
L: 1/8
R: barndance
K: GMaj
|: D>D EF G B3 | A2 GA B d2 f | (3gag fe dBGA |[1 B A2 G A2 B2 :|[2 BG A2 G4 ||
gfga bgdB | de d/e/d/B/ d3 f | gfga bgdc | (3BcB A^G A3 f |
gfga bgdB | de d/e/d/B/ d2 df | gafg efde | (3cdc Bc A2 d2 ||
|: D>D EF G B3 | A2 GA B d2 f | (3gag fe dBGA |[1 B A2 G A2 B2 :|[2 BG A2 G4 |]
